X:49
T:Reel 49
M:4/4
K:Gmaj
L:1/8
dc|BGEG DEFG|BGdB cedc|BGAG EGDc|BGAF G2:|Bd|gfde fgaf|gfef edBd|gfge fgaf|bgef g2Bd|ggfg efde|gbaf gfed|gfef edec|BGAF G2|
